X:24
T:Cock of the North, The
T:Cock o' the North
T:Chase me Charlie
R:slide
Z:id:hn-slide-24
M:6/8
K:G
B2B BAG|B2d e2d|B2B BAG|ABA AGA|
B2B BAG|B2d e2d|B2B ABA|1 G3 G2A:|2 G3 GBd||
|:g2d e2d|g2d e2d|B2B BAG|A2A ABd|
g2d e2d|g2d e2d|B2B ABA|1 G3 GBd:|2 G3 G2A||
<end>
<start>
